X:1
T:Burkina Faso, 87.87 D
T:Burkina Faso, 87.87 D
T:Tullius Clinton O’Kane, 1870
T:Public Domain Courtesy of the Cyber Hymnal™
C:Tullius Clinton O’Kane, 1870
Z:Public Domain
Z:Courtesy of the Cyber Hymnal™
%%score ( 1 2 ) ( 3 4 )
L:1/8
Q:1/4=93
M:3/4
K:G
V:1 treble 
V:2 treble 
V:3 bass 
V:4 bass 
V:1
 [DG]>[DG] [DG][DG] [DG][DG] | [GB]2 [DG]2 [FA]>[FA] | [FA][FA] [EG]2 [FA]2 | [GB]4 z2 | %4
 [GB]>[GB] [DB][DB] [DB][GB] | [Fc]2 [GB]2 [FA]>[FA] | [FA][DA] [GB]2 [G^c]2 | [Fd]4 z2 | %8
 [Fc]>[Fc] [Fc][Fc] [Fc][Fc] | [Fc]2 [FA]2 [GB]>[DB] | [DB][DA] [EG]2 [EA]2 | [^DB]4 z2 | %12
 [EG]>[EG] [EG][EG] [FA][=FB] | [Ec]2 !fermata![Ge]2 [Gd]>[Gd] | [Dd][Fc] [GB]2 [FA]2 | G6 |] %16
V:2
 x6 | x6 | x6 | x6 | x6 | x6 | x6 | x6 | x6 | x6 | x6 | x6 | x6 | x6 | x6 | G6 |] %16
V:3
 [G,B,]>[G,B,] [G,B,][G,B,] [G,B,][G,B,] | [G,D]2 [G,B,]2 [D,D]>[D,D] | [D,D][D,D] [E,B,]2 [D,D]2 | %3
 [G,D]4 z2 | [G,D]>[G,D] [G,B,]G, [G,B,][G,D] | [G,E]2 [G,D]2 [D,D]>[D,D] | %6
 [D,D][F,D] [G,D]2 [E,A,]2 | [D,A,]4 z2 | [D,A,]>[D,A,] [D,A,][D,A,] [D,A,][D,A,] | %9
 [D,A,]2 [D,D]2 [G,B,]>G, | G,[F,A,] [E,B,]2 [C,A,]2 | [B,,F,]4 z2 | %12
 [E,G,]>[E,B,] [E,B,][E,B,] [D,D][G,D] | [C,C]2 !fermata![C,C]2 [D,B,]>[D,B,] | %14
 [D,B,][D,A,] [D,D]2 [D,C]2 | [G,,G,B,]6 |] %16
V:4
 x6 | x6 | x6 | x6 | x3 G, x2 | x6 | x6 | x6 | x6 | x11/2 G,/ | G, x5 | x6 | x6 | x6 | x6 | x6 |] %16

